X:1
T:James Gibb editions
T:Duo Seraphim - Victoria
T:#
%%score [ 1 2 3 4 ]
L:1/8
Q:1/4=90
M:2/2
K:F
V:1 treble nm="Soprano I" snm="S I"
V:2 treble nm="Soprano II" snm="S II"
V:3 treble nm="Alto I" snm="A I"
V:4 treble nm="Alto II" snm="A II"
V:1
"^Duo Seraphim""^Tomás Luis de Victoria\n(1548-1611)" F8 | G8 | A6 B2 | c4 z2 F2 | c4 A2 B2- | %5
w: Du-|o|Se- ra-|phim cla-|ma- bant al\-|
[M:2/2] BB G2 (A3 G | AB c2 B2) G2 | A8 | z8 | (F3 GAB c2- | cB A2 G4) | A8 | z4 z2 c2- | %13
w: * ter ad al\- *|* * * * te-|rum:||San\- * * * *||ctus|Do\-|
 c2 c2 A2 B2- | B2 G2 (A3 G | AB c4) =B2 | (c3 B A4) | B3 B G2 A2- | A2 F2 G2 G2 | A2 A3 A F2 | %20
w: * mi- nus De\-|* us Sa\- *|* * * ba-|oth, * *|Do- mi- nus De\-|* us Sa- ba-|oth, Do- mi- nus|
 G4 E2 (F2- | FG A2 F4 | G2 A2) G4 | A8 | z2 B4 B2 | B4 z2 (B2- | B2 AG A2) A2 | (G3 F E4) | %28
w: De- us Sa\-||* * ba-|oth.|Ple- na|est o\-|* * * * mnis|ter\- * *|
 D2 F2 F2 G2 | (A3 G F2 E2) | D2 F2 F2 G2 | (A3 GAB c2- | c2 =B2) c4 | z2 d3 d c2 | (A2 =B2 c4) | %35
w: ra glo- ri- a|e\- * * *|jus, glo- ri- a|e\- * * * *|* * jus,|glo- ri- a|e\- * *|
 !fermata!c8 ||"^Secunda Pars" c8 | A2 F2 c3 c | c2 c2 A2 B2 | c4 (d2 c2- | c2 =BA B4) | c8- | c8 | %43
w: jus.|Tres|sunt, qui te- sti-|mo- ni- um dant|in coe\- *||lo:||
 z4 z2 A2 | B2 F2 G2 (A2- | A2 G2 AGFE | F4 D4) ||[M:3/2][Q:1/4=180] F4 A4 G4 | F6 D2 E4 | %49
w: et|Spi- ri- tus San\-|||ctus: et hi|tres u- num|
 F4 c4 c4 | A6 B2 G4 ||[M:2/2][Q:1/4=90] A8 | z8 | (F3 G AB c2- | cB A2 G4) | A2 A3 A F2 | %56
w: sunt, et hi|tres u- num|sunt.||San\- * * * *||ctus Do- mi- nus|
 G4 E2 (F2- | FG A2) F4 | G2 c3 c A2 | d4 c2 c2- | c2 =B2 c2 c2- | c2 c2 A2 B2- | B2 G2 (A3 G | %63
w: De- us Sa\-|* * * ba-|oth, Do- mi- nus|De- us Sa\-|* ba- oth. Do\-|* mi- nus De\-|* us Sa\- *|
 AB c4) =B2 | c4 z2 c2- | c2 c2 c4 | d6 d2 | d8 | c6 A2 | (B4 A4) | A4 z4 | z2 F2 F2 G2 | %72
w: * * * ba-|oth. Ple\-|* na est,|ple- na|est|o- mnis|ter\- *|ra|glo- ri- a|
 (A3 G F2 E2) | D2 F2 F2 G2 | (A2 F2 G4) | A2 B3 B G2 | (F4 G4) | A2 B2 B2 c2 | (dcBA B4- | %79
w: e\- * * *|jus, glo- ri- a|e\- * *|jus, glo- ri- a|e\- *|jus, glo- ri- a|e\- * * * *|
 B2 AG) !fermata!A4 |] %80
w: * * * jus.|
V:2
 z8 | z8 | z8 | z8 | z8 |[M:2/2] z8 | z8 | (F3 GAB c2- | cB A2 G4) | A8 | z8 | (F3 GAB c2- | %12
w: |||||||San\- * * * *||ctus,||San\- * * * *|
 cB A2 G4) | A2 A3 A F2 | G4 E2 (F2- | FG A2) F4 | G2 c3 c A2 | d4 c2 c2- | c2 =B2 c2 c2- | %19
w: |ctus Do- mi- nus|De- us Sa\-|* * * ba-|oth, Do- mi- nus|De- us Sa\-|* ba- oth, Do\-|
 c2 c2 A2 B2- | B2 G2 (A3 G | AB c4) =B2 | c4 z2 c2- | c2 c2 c4 | d6 d2 | d8 | c6 A2 | (B4 A4) | %28
w: * mi- nus De\-|* us Sa\- *|* * * ba-|oth. Ple\-|* na est,|ple- na|est|o- mnis|ter\- *|
 A4 z4 | z2 F2 F2 G2 | (A3 G F2 E2) | D2 F2 F2 G2 | (A2 F2 G4) | A2 B3 B G2 | (F4 G4) | %35
w: ra|glo- ri- a|e\- * * *|jus, glo- ri- a|e\- * *|jus, glo- ri- a|e\- *|
 !fermata!A8 || G8 | F4 z2 G2 | A3 A A2 F2 | G2 A4 G2 | F8 | G8 | z4 z2 c2 | B4 A2 c2 | d4 d2 c2 | %45
w: jus.|Tres|sunt, qui|te- sti- mo- ni-|um dant in|coe-|lo:|et|Ver- bum, et|Spi- ri- tus|
 (B4 A4 | B2 A4 G2) ||[M:3/2] A4 c4 c4 | A6 B2 G4 | F4 A4 G4 | F6 D2 E4 ||[M:2/2] F2 (FGAB c2- | %52
w: San\- *||ctus: et hi|tres u- num|sunt, et hi|tres u- num|sunt. San\- * * * *|
 cB A2 G4) | A8 | z4 z2 c2- | c2 c2 A2 B2- | B2 G2 (A3 G | AB c4) =B2 | (c3 B A4) | B3 B G2 A2- | %60
w: |ctus|Do\-|* mi- nus De\-|* us Sa\- *|* * * ba-|oth, * *|Do- mi- nus De\-|
 A2 F2 G2 G2 | A2 A3 A F2 | G4 E2 (F2- | FG A2 F4 | G2 A2) G4 | A8 | z2 B4 B2 | B4 z2 (B2- | %68
w: * us Sa- ba-|oth, Do- mi- nus|De- us Sa\-||* * ba-|oth.|Ple- na|est o\-|
 B2 AG A2) A2 | (G3 F E4) | D2 F2 F2 G2 | (A3 G F2 E2) | D2 F2 F2 G2 | (A3 GAB c2- | c2 =B2) c4 | %75
w: * * * * mnis|ter\- * *|ra glo- ri- a|e\- * * *|jus, glo- ri- a|e\- * * * *|* * jus,|
 z2 d3 d c2 | (A2 =B2) c4 | z2 d3 d c2 | (BABc d4) | !fermata!c8 |] %80
w: glo- ri- a|e\- * jus,|glo- ri- a|e\- * * * *|jus.|
V:3
 z4 (F4- | F2 ED E2) E2 | F4 D4 | C2 C2 F4 | E2 F3 F D2 |[M:2/2] (_E3 D C2 D2- | %6
w: Du\-|* * * * o|Se- ra-|phim cla- ma-|bant al- ter ad|al\- * * *|
 DC/B,/ A,2 B,2) C2 | F,8 | z8 | z2 (F3 ECD | E2 F4 E2) | F2 (F,3 G,A,B, | C2 D2 B,2 C2) | %13
w: * * * * * te-|rum:||San\- * * *||ctus, San\- * * *||
 F,2 F3 F D2 | _E4 C2 (D2- | DC A,2 D4) | C4 F,2 F2- | FF D2 E4 | F2 F4 E2 | F4 z4 | z8 | %21
w: ctus Do- mi- nus|De- us Sa\-||ba- oth, Do\-|* mi- nus De-|us Sa- ba-|oth,||
 z2 F3 F D2 | E2 F2 D2 E2 | F4 z2 F2- | F2 F2 F4 | z2 F4 F2 | (F3 E/D/ C2) F2 | E2 (D4 ^C2) | %28
w: Do- mi- nus|De- us Sa- ba-|oth. Ple\-|* na est,|pie- na|est * * * o-|mnis ter\- *|
 D4 z4 | z2 D2 D2 E2 | (F3 E D2 C2) | F2 D2 D2 E2 | F2 D2 C4 | z2 B,2 B,2 C2 | (DC F4 E2) | %35
w: ra|glo- ri- a|e\- * * *|jus, glo- ri- a|e- * jus,|glo- ri- a|e\- * * *|
 !fermata!F8 || C8 | D4 z2 C2 | F3 F F2 D2 | E2 F4 E2 | D8 | C8 | z8 | z8 | z8 | z8 | z8 || %47
w: jus.|Tres|sunt, qui|te- sti- mo- ni-|um dant in|coe-|lo:||||||
[M:3/2] z4 F4 C4 | D6 B,2 C4 | F,4 z4 z4 | z12 ||[M:2/2] z2 (F,3 G,A,B, | C2 D2 B,2 C2) | %53
w: et hi|tres u- num|sunt.||San\- * * *||
 F,2 (F3 ECD | E2 F4 E2) | F4 z4 | z8 | z2 F3 F D2 | E4 F4 | (B,4 C4 | D4) C4 | F,2 F3 F D2 | %62
w: ctus, San\- * * *||ctus||Do- mi- nus|De- us|Sa\- *|* ba-|oth, Do- mi- nus|
 _E4 C2 (D2- | DC A,2 D4 | C2 A,2 B,2) C2 | F,8 | B,6 B,2 | B,8 | F,8 | G,4 A,4 | D,2 D2 D2 E2 | %71
w: De- us Sa\-||* * * ba-|oth.|Ple- na|est|o-|mnis ter-|ra glo- ri- a|
 (F3 E D2 C2) | F2 D2 D2 E2 | (F3 E D2 C2) | F,2 F3 F E2 | (F4 D2 E2 | F2 D2 C4) | F,2 B,3 B, A,2 | %78
w: e\- * * *|jus, glo- ri- a|e\- * * *|jus, glo- ri- a|e\- * *||jus, glo- ri- a|
 B,8 | !fermata!F,8 |] %80
w: e-|jus.|
V:4
 z8 | z8 | z8 | z8 | z8 |[M:2/2] z8 | z8 | z2 (F3 ECD | E2 F4 E2) | F2 (F,3 G,A,B, | %10
w: |||||||San\- * * *||ctus, San\- * * *|
 C2 D2 B,2 C2) | F,2 (F3 ECD | E2 F4 E2) | F4 z4 | z8 | z2 F3 F D2 | E4 F4 | (B,4 C4 | D4) C4 | %19
w: |ctus, San\- * * *||ctus||Do- mi- nus|De- us|Sa\- *|* ba-|
 F,2 F3 F D2 | _E4 C2 (D2- | DC A,2) D4 | C2 (A,2 B,2) C2 | F,8 | B,6 B,2 | B,8 | F,8 | G,4 A,4 | %28
w: oth, Do- mi- nus|De- us Sa\-|* * * ba-|oth, Sa\- * ba-|oth.|Ple- na|est|o-|mnis ter-|
 D,2 D2 D2 E2 | (F3 E D2 C2) | F2 D2 D2 E2 | (F3 E D2 C2) | F,2 F3 F E2 | (F4 D2 E2 | F2 D2 C4) | %35
w: ra glo- ri- a|e\- * * *|jus, glo- ri- a|e\- * * *|jus, glo- ri- a|e\- * *||
 !fermata!F,8 || z8 | z8 | z8 | z8 | z4 (F4- | F2 ED EFGE | F4) E2 C2 | D2 E2 F2 F,2 | B,4 B,2 C2 | %45
w: jus.|||||Pa\-||* ter, et|Ver- * bum, et|Spi- ri- tus|
 (D2 E2 FEDC | D4 B,4) ||[M:3/2] F,4 z4 z4 | z12 | z4 F4 C4 | D6 B,2 C4 ||[M:2/2] F,2 (F3 ECD | %52
w: San\- * * * * *||ctus:||et hi|tres u- num|sunt. San\- * * *|
 E2 F4 E2) | F2 (F,3 G,A,B, | C2 D2 B,2 C2) | F,2 F3 F D2 | _E4 C2 (D2- | DC A,2 D4) | C4 F,2 F2- | %59
w: |ctus, San\- * * *||ctus Do- mi- nus|De- us Sa\-||ba- oth, Do\-|
 FF D2 E4 | F2 F4 E2 | F4 z4 | z8 | z2 F3 F D2 | E2 F2 D2 E2 | F4 z2 F2- | F2 F2 F4 | z2 F4 F2 | %68
w: * mi- nus De-|us Sa- ba-|oth,||Do- mi- nus|De- us Sa- ba-|oth. Ple\-|* na est,|ple- na|
 (F3 E/D/ C2) F2 | E2 (D4 ^C2) | D4 z4 | z2 D2 D2 E2 | (F3 E D2 C2) | F2 D2 D2 E2 | (F2 D2 C4) | %75
w: est * * * o-|mnis ter\- *|ra|glo- ri- a|e\- * * *|jus, glo- ri- a|e\- * *|
 F,2 B,2 B,2 C2 | (DC F4"^r" E2) | F8- | F8 | !fermata!F8 |] %80
w: jus. glo- ri- a|e\- * * *|jus.|||

